!!!!SEGMENT: pl-cz--ii-188--003_orllowski-michall--missa-ex-g-laudamus.krn
!!!cenid: 17xx:1007
!!!COM: Orłowski, Michał
!!!COM-rismid: pe30020336
!!!CDT: ~1700-~1799
!!!CNT:
!!!OPR: Missa ex G
!!!OTL: Laudamus
!!!OMV: 003
!!!PDT:
!!!AGN: Sacred; Mass
!!!SMS-siglum: PL-CZ
!!!SMS-shelfmark: II-188
!!!SMS-shelfwork: 001-003 M
!!!SMS-variant:
!!!SMS-altvar:
!!!NIFC-rismid: 300000944
!!!URL-scan: http://repozytorium.nifc.pl/skany/pl-cz-nut--ii-188
!!!ONB-nifc: UWAGA: części Mszy: Kyrie, Gloria, Laudamus, Domine deus, Qui tollis, Quoniam,
!!!key: G
**kern	**kern	**dynam	**kern	**dynam	**kern	**kern	**kern	**text	**kern	**kern
*part8	*part7	*part7	*part6	*part6	*part5	*part4	*part3	*part3	*part2	*part1
*staff8	*staff7	*	*staff6	*	*staff5	*staff4	*staff3	*staff3	*staff2	*staff1
*I"Fundamento.	*I"Violino Secundo.	*	*I"Violino Primo.	*	*I"Baſso.	*I"Canto 2do:	*I"Canto 1mo:	*	*I"Cornu 2do in G.	*I"Cornu 1mo.. in G.
*I'org	*I'vl 2	*	*I'vl 1	*	*I'B	*I'S 2	*I'S 1	*	*I'cor 2 in G	*I'cor 1 in G
*Iorgan	*Ivioln	*	*Ivioln	*	*Ibass	*Isoprn	*Isoprn	*	*Icor	*Icor
*ICklav	*ICstr	*	*ICstr	*	*ICvox	*ICvox	*ICvox	*	*ICbras	*ICbras
*>[A,B,A]	*>[A,B,A]	*>[A,B,A]	*>[A,B,A]	*>[A,B,A]	*>[A,B,A]	*>[A,B,A]	*>[A,B,A]	*>[A,B,A]	*>[A,B,A]	*>[A,B,A]
*>A	*>A	*>A	*>A	*>A	*>A	*>A	*>A	*>A	*>A	*>A
*clefF4	*clefG2	*	*clefG2	*	*clefF4	*clefC1	*clefC1	*	*clefG2	*clefG2
*	*	*	*	*	*	*	*	*	*ITrd3c5	*ITrd3c5
*k[f#]	*k[f#]	*	*k[f#]	*	*k[f#]	*k[f#]	*k[f#]	*	*k[f#]	*k[f#]
*G:	*G:	*	*G:	*	*G:	*G:	*G:	*	*G:	*G:
*M3/4	*M3/4	*	*M3/4	*	*M3/4	*M3/4	*M3/4	*	*M3/4	*M3/4
*all\right	*all\right	*	*all\right	*	*	*	*all\right	*	*	*
!LO:TX:a:t=Andante.	!LO:TX:b:t=Laudamus.	!	!LO:TX:a:t=Andante&colon;	!	!	!	!LO:TX:a:t=Andante	!	!	!
!LO:TX:a:t=Laudamus&colon;	!LO:TX:a:t=Andante.	!	!LO:TX:b:t=Lauda&colon;	!	!LO:TX:a:t=Laudamus Tacet,	!LO:TX:a:t=Problem&colon;brak części Laudamus w komplecie skanów	!LO:TX:b:t=Laudamus	!	!LO:TX:a:t=Laudamus Tacet,	!LO:TX:a:t=Laudamus Tacet,
4r	4r	.	4d/	.	4ryy	4ryy	4r	.	4ryy	4ryy
=1	=1	=1	=1	=1	=1	=1	=1	=1	=1	=1
!LO:TX:t=P:problem:mixed beam	!	!	!	!	!	!	!	!	!	!
8GG/L	8dL 8B/	.	4g/	.	2.ryy	2.ryy	0.r	.	2.ryy	2.ryy
8G\	8d 8B/	.	.	.	.	.	.	.	.	.
8GG/	8d 8B/	.	16g/LL	.	.	.	.	.	.	.
.	.	.	16a/	.	.	.	.	.	.	.
8G\J	8dJ 8B/	.	16b/	.	.	.	.	.	.	.
.	.	.	16cc/JJ	.	.	.	.	.	.	.
!LO:TX:t=P:problem:mixed beam	!	!	!	!	!	!	!	!	!	!
8d/L	8dL 8A/	.	16dd\LL	.	.	.	.	.	.	.
.	.	.	16cc\	.	.	.	.	.	.	.
8D\J	8dJ 8A/	.	16b\	.	.	.	.	.	.	.
.	.	.	16a\JJ	.	.	.	.	.	.	.
=2	=2	=2	=2	=2	=2	=2	=2	=2	=2	=2
8.G\L	8.B/L	.	8.g/L	.	2.ryy	2.ryy	.	.	2.ryy	2.ryy
16D\Jk	16A/Jk	.	16f#/Jk	.	.	.	.	.	.	.
!LO:TX:t=P:problem:mixed beam	!	!	!	!	!	!	!	!	!	!
8G\L	4B/	.	4g/	.	.	.	.	.	.	.
8D/	.	.	.	.	.	.	.	.	.	.
8BB/	8r	.	8r	.	.	.	.	.	.	.
8GG/J	8g/	.	8b/	.	.	.	.	.	.	.
=3	=3	=3	=3	=3	=3	=3	=3	=3	=3	=3
4D/	8f#/L	.	8a/L	.	2.ryy	2.ryy	.	.	2.ryy	2.ryy
.	8a/	.	8cc/	.	.	.	.	.	.	.
4r	8f#/	.	8a/	.	.	.	.	.	.	.
.	8e/	.	8g/	.	.	.	.	.	.	.
4D/	8d/	.	8f#/	.	.	.	.	.	.	.
.	8f#/J	.	8a/J	.	.	.	.	.	.	.
=4	=4	=4	=4	=4	=4	=4	=4	=4	=4	=4
4G\	8g/L	.	8b\L	.	2.ryy	2.ryy	.	.	2.ryy	2.ryy
.	8b/	.	8dd\	.	.	.	.	.	.	.
4r	8g/	.	8b\	.	.	.	.	.	.	.
.	8f#/	.	8a\	.	.	.	.	.	.	.
4G\	8e/	.	8g\	.	.	.	.	.	.	.
.	8g/J	.	8b\J	.	.	.	.	.	.	.
=5	=5	=5	=5	=5	=5	=5	=5	=5	=5	=5
*tremolo	*	*	*	*	*	*	*	*	*	*
8C/L	8a/L	.	8cc\L	.	2.ryy	2.ryy	0.r	.	2.ryy	2.ryy
8C/	8cc/	.	8ee\	.	.	.	.	.	.	.
8C/	8a/	.	8cc\	.	.	.	.	.	.	.
8C/J	8g/	.	8b\	.	.	.	.	.	.	.
*Xtremolo	*	*	*	*	*	*	*	*	*	*
8C/L	8f#/	.	8a\	.	.	.	.	.	.	.
8C#X/J	8e/J	.	8g\J	.	.	.	.	.	.	.
!LO:LB:g=original	!LO:LB:g=original	!	!	!	!	!	!	!	!	!
=6	=6	=6	=6	=6	=6	=6	=6	=6	=6	=6
!LO:TX:t=P:problem:mixed beam	!	!	!	!	!	!	!	!	!	!
8D/L	16f#/LL	.	16a/LL	.	2.ryy	2.ryy	.	.	2.ryy	2.ryy
.	16e/	.	16g/	.	.	.	.	.	.	.
8d\J	16d/	.	16f#/	.	.	.	.	.	.	.
.	16e/JJ	.	16g/JJ	.	.	.	.	.	.	.
4D/	4d/	.	4f#/	.	.	.	.	.	.	.
4r	4r	.	8r	.	.	.	.	.	.	.
.	.	.	8a/	.	.	.	.	.	.	.
!	!	!	!LO:LB:g=original	!	!	!	!	!	!	!
=7	=7	=7	=7	=7	=7	=7	=7	=7	=7	=7
*	*^	*	*	*	*	*	*	*	*	*
!	!	!	!	!	!LO:DY:b:t=pia	!	!	!	!	!	!
4D/	4a/	4f#\	.	4dd\	p	2.ryy	2.ryy	.	.	2.ryy	2.ryy
4r	4r	4ryy	.	16dd\LL	.	.	.	.	.	.	.
.	.	.	.	16ff#\	.	.	.	.	.	.	.
.	.	.	.	16aa\	.	.	.	.	.	.	.
.	.	.	.	16ff#\JJ	.	.	.	.	.	.	.
4r	4r	4ryy	.	16ee\LL	.	.	.	.	.	.	.
.	.	.	.	16dd\	.	.	.	.	.	.	.
.	.	.	.	16cc#X\	.	.	.	.	.	.	.
.	.	.	.	16dd\JJ	.	.	.	.	.	.	.
=8	=8	=8	=8	=8	=8	=8	=8	=8	=8	=8	=8
!	!	!	!	!	!LO:DY:b:t=for&colon;	!	!	!	!	!	!
4AA/	4a/	4e\	.	4ee\	f	2.ryy	2.ryy	.	.	2.ryy	2.ryy
4r	4r	4ryy	.	16ee\LL	.	.	.	.	.	.	.
.	.	.	.	16gg\	.	.	.	.	.	.	.
!	!	!	!	!	!LO:DY:b:t=pia	!	!	!	!	!	!
.	.	.	.	16bb\	p	.	.	.	.	.	.
.	.	.	.	16gg\JJ	.	.	.	.	.	.	.
4r	4r	4ryy	.	16ff#\LL	.	.	.	.	.	.	.
.	.	.	.	16ee\	.	.	.	.	.	.	.
.	.	.	.	16dd#X\	.	.	.	.	.	.	.
.	.	.	.	16ee\JJ	.	.	.	.	.	.	.
*	*v	*v	*	*	*	*	*	*	*	*	*
=9	=9	=9	=9	=9	=9	=9	=9	=9	=9	=9
4D\	8dd\L	.	8ff#\L	.	2.ryy	2.ryy	0.r	.	2.ryy	2.ryy
.	8ff#\J	.	8aa\J	.	.	.	.	.	.	.
*	*Xtuplet	*	*Xtuplet	*	*	*	*	*	*	*
4G\	12gg\L	.	12ddd\L	.	.	.	.	.	.	.
.	12ff#\	.	12aa\	.	.	.	.	.	.	.
.	12ee\J	.	12gg\J	.	.	.	.	.	.	.
4G#X\	12dd\L	.	12ff#\L	.	.	.	.	.	.	.
.	12cc#X\	.	12ee\	.	.	.	.	.	.	.
.	12b\J	.	12dd\J	.	.	.	.	.	.	.
=10	=10	=10	=10	=10	=10	=10	=10	=10	=10	=10
8A\L	16cc#X\LL	.	16ee\LL	.	2.ryy	2.ryy	.	.	2.ryy	2.ryy
.	16b\	.	16dd\	.	.	.	.	.	.	.
8E\	16a\	.	16cc#X\	.	.	.	.	.	.	.
.	16b\JJ	.	16dd\JJ	.	.	.	.	.	.	.
8C#X\	4a/	.	4cc#\	.	.	.	.	.	.	.
8E\J	.	.	.	.	.	.	.	.	.	.
4AA/	4r	.	4r	.	.	.	.	.	.	.
=11	=11	=11	=11	=11	=11	=11	=11	=11	=11	=11
*	*^	*	*	*	*	*	*	*	*	*
*	*tremolo	*tremolo	*	*	*	*	*	*	*	*	*
!LO:TX:t=P:problem:mixed beam	!	!	!	!	!LO:DY:b:t=forte.	!	!	!	!	!	!
8AA/L	8a/L	8e\L	.	16a\LL	f	2.ryy	2.ryy	.	.	2.ryy	2.ryy
.	.	.	.	16b\	.	.	.	.	.	.	.
8A\	8a/	8e\	.	16cc#X\	.	.	.	.	.	.	.
.	.	.	.	16dd\JJ	.	.	.	.	.	.	.
8AA/	8a/	8e\	.	16ee\LL	.	.	.	.	.	.	.
.	.	.	.	16ff#\	.	.	.	.	.	.	.
8A\J	8a/	8e\	.	16gg\	.	.	.	.	.	.	.
.	.	.	.	16ff#\JJ	.	.	.	.	.	.	.
!LO:TX:t=P:problem:mixed beam	!	!	!	!	!	!	!	!	!	!	!
8AA/L	8a/	8e\	.	16dd\LL	.	.	.	.	.	.	.
.	.	.	.	16cc#\	.	.	.	.	.	.	.
8A\J	8a/J	8e\J	.	16b\	.	.	.	.	.	.	.
.	.	.	.	16a\JJ	.	.	.	.	.	.	.
=12	=12	=12	=12	=12	=12	=12	=12	=12	=12	=12	=12
!LO:TX:t=P:problem:mixed beam	!	!	!	!	!	!	!	!	!	!	!
8D/L	8a/L	8f#\L	.	16dd\LL	.	2.ryy	2.ryy	.	.	2.ryy	2.ryy
.	.	.	.	16ff#\	.	.	.	.	.	.	.
8d\	8a/	8f#\	.	16aa\	.	.	.	.	.	.	.
.	.	.	.	16gg#X\JJ	.	.	.	.	.	.	.
8D/	8a/	8f#\	.	8aa\L	.	.	.	.	.	.	.
8d\J	8a/	8f#\	.	8aa\J	.	.	.	.	.	.	.
!LO:TX:t=P:problem:mixed beam	!	!	!	!LO:LB:g=original	!	!	!	!	!	!	!
8D/L	8a/	8f#\	.	16ggn\LL	.	.	.	.	.	.	.
.	.	.	.	16ff#\	.	.	.	.	.	.	.
8d\J	8a/J	8f#\J	.	16ee\	.	.	.	.	.	.	.
.	.	.	.	16dd\JJ	.	.	.	.	.	.	.
=13	=13	=13	=13	=13	=13	=13	=13	=13	=13	=13	=13
!LO:TX:t=P:problem:mixed beam	!	!	!	!	!	!	!	!	!	!	!
8AA/L	8a/L	8e\L	.	16a\LL	.	2.ryy	2.ryy	0.r	.	2.ryy	2.ryy
.	.	.	.	16b\	.	.	.	.	.	.	.
8A\J	8a/	8e\	.	16cc#X\	.	.	.	.	.	.	.
.	.	.	.	16dd\JJ	.	.	.	.	.	.	.
!LO:TX:t=P:problem:mixed beam	!	!	!	!	!	!	!	!	!	!	!
8AA/L	8a/	8e\	.	16ee\LL	.	.	.	.	.	.	.
.	.	.	.	16ff#\	.	.	.	.	.	.	.
8A\	8a/	8e\	.	16gg\	.	.	.	.	.	.	.
.	.	.	.	16ee\JJ	.	.	.	.	.	.	.
8AA/	8a/	8e\	.	16dd\LL	.	.	.	.	.	.	.
.	.	.	.	16cc#\	.	.	.	.	.	.	.
8A\J	8a/J	8e\J	.	16b\	.	.	.	.	.	.	.
.	.	.	.	16a\JJ	.	.	.	.	.	.	.
!LO:LB:g=original	!	!	!	!	!	!	!	!	!	!	!
=14	=14	=14	=14	=14	=14	=14	=14	=14	=14	=14	=14
*tremolo	*	*	*	*	*	*	*	*	*	*	*
*2\right	*	*	*	*	*	*	*	*	*	*	*
8D/L	8a/L	8f#\L	.	16dd\LL	.	2.ryy	2.ryy	.	.	2.ryy	2.ryy
.	.	.	.	16ff#\	.	.	.	.	.	.	.
8d\	8a/	8f#\	.	16aa\	.	.	.	.	.	.	.
.	.	.	.	16gg#X\JJ	.	.	.	.	.	.	.
8D/	8a/	8f#\	.	8aa\L	.	.	.	.	.	.	.
8d\	8a/	8f#\	.	8aa\J	.	.	.	.	.	.	.
8D/	8a/	8f#\	.	16ggn\LL	.	.	.	.	.	.	.
.	.	.	.	16ff#\	.	.	.	.	.	.	.
8d\J	8a/J	8f#\J	.	16ee\	.	.	.	.	.	.	.
.	.	.	.	16dd\JJ	.	.	.	.	.	.	.
*	*v	*v	*	*	*	*	*	*	*	*	*
!	!LO:LB:g=original	!	!	!	!	!	!	!	!	!
=15	=15	=15	=15	=15	=15	=15	=15	=15	=15	=15
8G\L	8a/L	.	4bb\	.	2.ryy	2.ryy	.	.	2.ryy	2.ryy
8G\	8a/	.	.	.	.	.	.	.	.	.
8G\	8a/	.	16g\LL	.	.	.	.	.	.	.
.	.	.	16b\	.	.	.	.	.	.	.
8G\	8a/	.	16dd\	.	.	.	.	.	.	.
.	.	.	16gg\JJ	.	.	.	.	.	.	.
8G\	8a/	.	16bb\LL	.	.	.	.	.	.	.
.	.	.	16gg\	.	.	.	.	.	.	.
8G\J	8a/J	.	16ddd\	.	.	.	.	.	.	.
.	.	.	16bb\JJ	.	.	.	.	.	.	.
=16	=16	=16	=16	=16	=16	=16	=16	=16	=16	=16
8D\L	8a/L	.	4aa\	.	2.ryy	2.ryy	.	.	2.ryy	2.ryy
8D\	8a/	.	.	.	.	.	.	.	.	.
8D\	8a/	.	16d/LL	.	.	.	.	.	.	.
.	.	.	16f#/	.	.	.	.	.	.	.
8D\	8a/	.	16a/	.	.	.	.	.	.	.
.	.	.	16dd/JJ	.	.	.	.	.	.	.
8D\	8a/	.	16ff#\LL	.	.	.	.	.	.	.
.	.	.	16aa\	.	.	.	.	.	.	.
8D\J	8a/J	.	16ddd\	.	.	.	.	.	.	.
.	.	.	16aa\JJ	.	.	.	.	.	.	.
=17	=17	=17	=17	=17	=17	=17	=17	=17	=17	=17
8AA/L	8g/L	.	4gg\	.	2.ryy	2.ryy	0.r	.	2.ryy	2.ryy
8AA/	8g/	.	.	.	.	.	.	.	.	.
8AA/	8g/	.	16A/LL	.	.	.	.	.	.	.
.	.	.	16c#X/	.	.	.	.	.	.	.
8AA/	8g/	.	16e/	.	.	.	.	.	.	.
.	.	.	16a/JJ	.	.	.	.	.	.	.
!	!	!	!LO:LB:g=original	!	!	!	!	!	!	!
8AA/	8g/	.	16gg\LL	.	.	.	.	.	.	.
.	.	.	16ee\	.	.	.	.	.	.	.
8AA/J	8g/J	.	16bb\	.	.	.	.	.	.	.
.	.	.	16gg\JJ	.	.	.	.	.	.	.
*Xtremolo	*Xtremolo	*	*	*	*	*	*	*	*	*
=18	=18	=18	=18	=18	=18	=18	=18	=18	=18	=18
4D\	8dd\L	.	8ff#\L	.	2.ryy	2.ryy	.	.	2.ryy	2.ryy
.	8ff#\J	.	8aa\J	.	.	.	.	.	.	.
4G\	12gg\L	.	12bb\L	.	.	.	.	.	.	.
.	12ff#\	.	12aa\	.	.	.	.	.	.	.
.	12ee\J	.	12gg\J	.	.	.	.	.	.	.
4G#X\	12dd\L	.	12ff#\L	.	.	.	.	.	.	.
.	12cc#X\	.	12ee\	.	.	.	.	.	.	.
.	12b\J	.	12dd\J	.	.	.	.	.	.	.
=19	=19	=19	=19	=19	=19	=19	=19	=19	=19	=19
8A\L	16b\LL	.	16dd\LL	.	2.ryy	2.ryy	.	.	2.ryy	2.ryy
.	16a\	.	16cc#X\	.	.	.	.	.	.	.
8E\	16g#X\	.	16b\	.	.	.	.	.	.	.
.	16a\JJ	.	16a\JJ	.	.	.	.	.	.	.
8C#X\	4a/	.	4a/	.	.	.	.	.	.	.
8E\J	.	.	.	.	.	.	.	.	.	.
4AA/	4r	.	4r	.	.	.	.	.	.	.
=20	=20	=20	=20	=20	=20	=20	=20	=20	=20	=20
4AA/	16r	.	8gg\L	.	2.ryy	2.ryy	.	.	2.ryy	2.ryy
.	16e/LL	.	.	.	.	.	.	.	.	.
.	16c#X/	.	8ee\J	.	.	.	.	.	.	.
.	16e/JJ	.	.	.	.	.	.	.	.	.
4r	16A/LL	.	16r	.	.	.	.	.	.	.
.	16e/	.	16A/LL	.	.	.	.	.	.	.
.	16c#/	.	16c#X/	.	.	.	.	.	.	.
.	16e/JJ	.	16e/JJ	.	.	.	.	.	.	.
4r	16A/LL	.	16a\LL	.	.	.	.	.	.	.
.	16e/	.	16cc#X\	.	.	.	.	.	.	.
.	16c#/	.	16ee\	.	.	.	.	.	.	.
.	16e/JJ	.	16gg\JJ	.	.	.	.	.	.	.
=21	=21	=21	=21	=21	=21	=21	=21	=21	=21	=21
4D/	16r	.	8aa\L	.	2.ryy	2.ryy	0.r	.	2.ryy	2.ryy
.	16a/LL	.	.	.	.	.	.	.	.	.
.	16f#/	.	8ff#\J	.	.	.	.	.	.	.
.	16a/JJ	.	.	.	.	.	.	.	.	.
4r	16d/LL	.	16r	.	.	.	.	.	.	.
.	16a/	.	16A/LL	.	.	.	.	.	.	.
.	16f#/	.	16d/	.	.	.	.	.	.	.
.	16a/JJ	.	16f#/JJ	.	.	.	.	.	.	.
4r	16d/LL	.	16a\LL	.	.	.	.	.	.	.
.	16a/	.	16dd\	.	.	.	.	.	.	.
.	16f#/	.	16ff#\	.	.	.	.	.	.	.
.	16a/JJ	.	16aa\JJ	.	.	.	.	.	.	.
=22	=22	=22	=22	=22	=22	=22	=22	=22	=22	=22
4AA/	16r	.	8gg\L	.	2.ryy	2.ryy	.	.	2.ryy	2.ryy
.	16e/LL	.	.	.	.	.	.	.	.	.
.	16c#X/	.	8ee\J	.	.	.	.	.	.	.
.	16e/JJ	.	.	.	.	.	.	.	.	.
4r	16A/LL	.	16r	.	.	.	.	.	.	.
.	16e/	.	16A/LL	.	.	.	.	.	.	.
.	16c#/	.	16c/	.	.	.	.	.	.	.
.	16e/JJ	.	16e/JJ	.	.	.	.	.	.	.
!	!LO:LB:g=original	!	!	!	!	!	!	!	!	!
4r	16A/LL	.	16a\LL	.	.	.	.	.	.	.
.	16e/	.	16cc#X\	.	.	.	.	.	.	.
.	16c#/	.	16ee\	.	.	.	.	.	.	.
.	16e/JJ	.	16gg\JJ	.	.	.	.	.	.	.
!	!	!	!LO:LB:g=original	!	!	!	!	!	!	!
=23	=23	=23	=23	=23	=23	=23	=23	=23	=23	=23
4D/	16r	.	8aa\L	.	2.ryy	2.ryy	.	.	2.ryy	2.ryy
.	16a/LL	.	.	.	.	.	.	.	.	.
.	16f#/	.	8ff#\J	.	.	.	.	.	.	.
.	16a/JJ	.	.	.	.	.	.	.	.	.
4r	16d/LL	.	16r	.	.	.	.	.	.	.
.	16a/	.	16A/LL	.	.	.	.	.	.	.
.	16f#/	.	16d/	.	.	.	.	.	.	.
.	16a/JJ	.	16f#/JJ	.	.	.	.	.	.	.
4r	16d/LL	.	16a\LL	.	.	.	.	.	.	.
.	16a/	.	16dd\	.	.	.	.	.	.	.
.	16f#/	.	16ff#\	.	.	.	.	.	.	.
.	16a/JJ	.	16aa\JJ	.	.	.	.	.	.	.
=24	=24	=24	=24	=24	=24	=24	=24	=24	=24	=24
*tremolo	*	*	*	*	*	*	*	*	*	*
!LO:TX:t=P:problem:tremolo połączone z ósemkami	!	!	!	!	!	!	!	!	!	!
8G\L	16d/LL	.	4bb\	.	2.ryy	2.ryy	.	.	2.ryy	2.ryy
.	16b/	.	.	.	.	.	.	.	.	.
8G\	16g/	.	.	.	.	.	.	.	.	.
.	16b/JJ	.	.	.	.	.	.	.	.	.
8G\	16d/LL	.	16bb\LL	.	.	.	.	.	.	.
.	16b/	.	16gg\	.	.	.	.	.	.	.
!	!	!	!LO:N:vis=16.	!	!	!	!	!	!	!
8G\J	16g/	.	16ggT\	.	.	.	.	.	.	.
.	16b/JJ	.	32ff#\L	.	.	.	.	.	.	.
.	.	.	32gg\JJJ	.	.	.	.	.	.	.
*Xtremolo	*	*	*	*	*	*	*	*	*	*
8D/L	16d/LL	.	16aa\LL	.	.	.	.	.	.	.
.	16a/	.	16ff#\	.	.	.	.	.	.	.
!	!	!	!LO:N:vis=16.	!	!	!	!	!	!	!
8D/J	16f#/	.	16ff#t\	.	.	.	.	.	.	.
.	16a/JJ	.	32ee\L	.	.	.	.	.	.	.
.	.	.	32ff#\JJJ	.	.	.	.	.	.	.
!LO:LB:g=original	!	!	!	!	!	!	!	!	!	!
=25	=25	=25	=25	=25	=25	=25	=25	=25	=25	=25
8G\L	16g/LL	.	16ee\LL	.	2.ryy	2.ryy	0.r	.	2.ryy	2.ryy
.	16a/	.	16ff#\	.	.	.	.	.	.	.
8G\	16b/	.	16gg\	.	.	.	.	.	.	.
.	16g/JJ	.	16ee\JJ	.	.	.	.	.	.	.
*	*tremolo	*	*	*	*	*	*	*	*	*
8A\	16f#/LL	.	4dd\	.	.	.	.	.	.	.
.	16f#/	.	.	.	.	.	.	.	.	.
8A\J	16f#/	.	.	.	.	.	.	.	.	.
.	16f#/JJ	.	.	.	.	.	.	.	.	.
8AA/L	16e/LL	.	4cc#Xt\	.	.	.	.	.	.	.
.	16e/	.	.	.	.	.	.	.	.	.
8AA/J	16e/	.	.	.	.	.	.	.	.	.
.	16e/JJ	.	.	.	.	.	.	.	.	.
*	*Xtremolo	*	*	*	*	*	*	*	*	*
=26	=26	=26	=26	=26	=26	=26	=26	=26	=26	=26
!	!	!	!LO:N:vis=8	!	!	!	!	!	!	!
8D\L	16d/LL	.	4b\L|	.	2.ryy	2.ryy	.	.	2.ryy	2.ryy
.	16b/	.	.	.	.	.	.	.	.	.
8D\	16g/	.	.	.	.	.	.	.	.	.
.	16b/JJ	.	.	.	.	.	.	.	.	.
8G\	16d/LL	.	16bb\Lk	.	.	.	.	.	.	.
.	16b/	.	16gg\	.	.	.	.	.	.	.
!	!	!	!LO:N:vis=16.	!	!	!	!	!	!	!
8G\	16g/	.	16ggT\	.	.	.	.	.	.	.
.	16b/JJ	.	32ff#\L	.	.	.	.	.	.	.
.	.	.	32gg\JJJ	.	.	.	.	.	.	.
8D\	16d/LL	.	16aa\LL	.	.	.	.	.	.	.
.	16a/	.	16ff#\	.	.	.	.	.	.	.
!	!	!	!LO:N:vis=16.	!	!	!	!	!	!	!
8D\J	16f#/	.	16ff#t\	.	.	.	.	.	.	.
.	16a/JJ	.	32ee\L	.	.	.	.	.	.	.
.	.	.	32ff#\JJJ	.	.	.	.	.	.	.
=27	=27	=27	=27	=27	=27	=27	=27	=27	=27	=27
!LO:TX:t=P:problem:mixed beam	!	!	!	!	!	!	!	!	!	!
8G\L	16g/LL	.	16ee\LL	.	2.ryy	2.ryy	.	.	2.ryy	2.ryy
.	16a/	.	16ff#\	.	.	.	.	.	.	.
8G\	16b/	.	16gg\	.	.	.	.	.	.	.
.	16g/JJ	.	16ee\JJ	.	.	.	.	.	.	.
*	*tremolo	*	*	*	*	*	*	*	*	*
8A\	16f#/LL	.	4dd\	.	.	.	.	.	.	.
.	16f#/	.	.	.	.	.	.	.	.	.
8A\	16f#/	.	.	.	.	.	.	.	.	.
.	16f#/JJ	.	.	.	.	.	.	.	.	.
8AA/	16e/LL	.	4cc#Xt\	.	.	.	.	.	.	.
.	16e/	.	.	.	.	.	.	.	.	.
8AA/J	16e/	.	.	.	.	.	.	.	.	.
.	16e/JJ	.	.	.	.	.	.	.	.	.
*	*Xtremolo	*	*	*	*	*	*	*	*	*
!	!	!	!LO:PB:g=original	!	!	!	!	!	!	!
=28	=28	=28	=28	=28	=28	=28	=28	=28	=28	=28
4D\	4f#/	.	4dd\	.	2.ryy	2.ryy	.	.	2.ryy	2.ryy
8d\L	4r	.	4r	.	.	.	.	.	.	.
8cn\	.	.	.	.	.	.	.	.	.	.
8B\	4r	.	8r	.	.	.	.	.	.	.
8A\J	.	.	8d/	.	.	.	.	.	.	.
!	!LO:LB:g=original	!	!	!	!	!	!	!	!	!
=29	=29	=29	=29	=29	=29	=29	=29	=29	=29	=29
8G\L	4B/	.	4g/	.	2.ryy	2.ryy	0.r	.	2.ryy	2.ryy
8G\J	.	.	.	.	.	.	.	.	.	.
!LO:TX:t=P:problem:mixed beam	!	!	!	!	!	!	!	!	!	!
8GG/L	16A/LL	.	16f#/LL	.	.	.	.	.	.	.
.	16B/	.	16g/	.	.	.	.	.	.	.
8G\	16c/	.	16a/	.	.	.	.	.	.	.
.	16B/JJ	.	16g/JJ	.	.	.	.	.	.	.
8GG/	8a/L	.	8ccn\L	.	.	.	.	.	.	.
8G\J	8g/J	.	8b\J	.	.	.	.	.	.	.
=30	=30	=30	=30	=30	=30	=30	=30	=30	=30	=30
!LO:TX:t=P:problem:mixed beam	!	!	!	!	!	!	!	!	!	!
8GG/L	4g/	.	4b\	.	2.ryy	2.ryy	.	.	2.ryy	2.ryy
8G\J	.	.	.	.	.	.	.	.	.	.
*tremolo	*	*	*	*	*	*	*	*	*	*
8GG/L	16f#/LL	.	16a\LL	.	.	.	.	.	.	.
.	16g/	.	16b\	.	.	.	.	.	.	.
8G\	16a/	.	16cc\	.	.	.	.	.	.	.
.	16g/JJ	.	16b\JJ	.	.	.	.	.	.	.
8GG/	8cc\L	.	8ee\L	.	.	.	.	.	.	.
8G\J	8b\J	.	8dd\J	.	.	.	.	.	.	.
*Xtremolo	*	*	*	*	*	*	*	*	*	*
=31	=31	=31	=31	=31	=31	=31	=31	=31	=31	=31
4G\	4b\	.	8dd\L	.	2.ryy	2.ryy	.	.	2.ryy	2.ryy
.	.	.	8gg\	.	.	.	.	.	.	.
4r	4r	.	8bb\	.	.	.	.	.	.	.
.	.	.	8gg\	.	.	.	.	.	.	.
4G\	4b\	.	8dd\	.	.	.	.	.	.	.
.	.	.	8gg\J	.	.	.	.	.	.	.
=32	=32	=32	=32	=32	=32	=32	=32	=32	=32	=32
!LO:TX:t=P:problem:mixed beam	!	!	!	!	!	!	!	!	!	!
8d\L	4b/	.	4dd\	.	2.ryy	2.ryy	.	.	2.ryy	2.ryy
8d\	.	.	.	.	.	.	.	.	.	.
8D/	16b/LL	.	16dd\LL	.	.	.	.	.	.	.
.	16a/	.	16cc\	.	.	.	.	.	.	.
8D/J	16g/	.	16b\	.	.	.	.	.	.	.
.	16a/JJ	.	16cc\JJ	.	.	.	.	.	.	.
!LO:LB:g=original	!	!	!	!	!	!	!	!	!	!
.	8qqa/	.	8qqcc/	.	.	.	.	.	.	.
!LO:TX:t=P:problem:mixed beam	!	!	!	!	!	!	!	!	!	!
8G\L	4g/	.	4b\	.	.	.	.	.	.	.
8GG/J	.	.	.	.	.	.	.	.	.	.
=33	=33	=33	=33	=33	=33	=33	=33	=33	=33	=33
!LO:TX:t=P:problem:mixed beam	!	!	!	!	!	!	!	!	!	!
8D/L	8f#/L	.	8a/L	.	2.ryy	2.ryy	0.r	.	2.ryy	2.ryy
8d\J	8a/J	.	8cc/J	.	.	.	.	.	.	.
4D/	8r	.	8r	.	.	.	.	.	.	.
.	8a/L	.	8cc\L	.	.	.	.	.	.	.
4r	8g/	.	8b\	.	.	.	.	.	.	.
.	8f#/J	.	8a\J	.	.	.	.	.	.	.
=34	=34	=34	=34	=34	=34	=34	=34	=34	=34	=34
!LO:TX:t=P:problem:mixed beam	!	!	!	!	!	!	!	!	!	!
8GG/L	8g/L	.	8b\L	.	2.ryy	2.ryy	.	.	2.ryy	2.ryy
8G\J	8b/J	.	8dd\J	.	.	.	.	.	.	.
4GG/	8r	.	8r	.	.	.	.	.	.	.
.	8b/L	.	8dd\L	.	.	.	.	.	.	.
4r	8a/	.	8cc\	.	.	.	.	.	.	.
.	8g/J	.	8b\J	.	.	.	.	.	.	.
!	!	!	!LO:LB:g=original	!	!	!	!	!	!	!
=35	=35	=35	=35	=35	=35	=35	=35	=35	=35	=35
.	16qqdd/	.	16qqff#/	.	.	.	.	.	.	.
8c\L	8cc\L	.	8een\L	.	2.ryy	2.ryy	.	.	2.ryy	2.ryy
8c\	16b\L	.	16dd\L	.	.	.	.	.	.	.
.	16a\JJ	.	16cc\JJ	.	.	.	.	.	.	.
8d\	4g/	.	4b/	.	.	.	.	.	.	.
8d\J	.	.	.	.	.	.	.	.	.	.
8D/L	4f#t/	.	4aT/	.	.	.	.	.	.	.
8D/J	.	.	.	.	.	.	.	.	.	.
=36	=36	=36	=36	=36	=36	=36	=36	=36	=36	=36
*tremolo	*	*	*	*	*	*	*	*	*	*
!LO:TX:t=P:problem:tremolo połączone z ósemkami	!	!	!	!	!	!	!	!	!	!
8G\L	8g/	.	8g/	.	2.ryy	2.ryy	.	.	2.ryy	2.ryy
8G\	4b/	.	4dd\	.	.	.	.	.	.	.
8G\	.	.	.	.	.	.	.	.	.	.
8G\J	8b/	.	16gg\LL	.	.	.	.	.	.	.
.	.	.	16dd\JJ	.	.	.	.	.	.	.
*Xtremolo	*	*	*	*	*	*	*	*	*	*
!	!LO:LB:g=original	!	!	!	!	!	!	!	!	!
8D/L	16b/LL	.	16dd\LL	.	.	.	.	.	.	.
.	16a/	.	16cc\	.	.	.	.	.	.	.
8D/J	16f#/	.	16a\	.	.	.	.	.	.	.
.	16a/JJ	.	16cc\JJ	.	.	.	.	.	.	.
=37	=37	=37	=37	=37	=37	=37	=37	=37	=37	=37
!LO:TX:t=P:problem:mixed beam	!	!	!	!	!	!	!	!	!	!
8GG/L	8g/	.	8b\	.	2.ryy	2.ryy	1.r	.	2.ryy	2.ryy
8G\	4b/	.	4dd\	.	.	.	.	.	.	.
8G\	.	.	.	.	.	.	.	.	.	.
8G\	8b/	.	16gg\LL	.	.	.	.	.	.	.
.	.	.	16dd\JJ	.	.	.	.	.	.	.
8D\	16b/LL	.	16dd\LL	.	.	.	.	.	.	.
.	16a/	.	16cc\	.	.	.	.	.	.	.
8D\J	16f#/	.	16a\	.	.	.	.	.	.	.
.	16a/JJ	.	16cc\JJ	.	.	.	.	.	.	.
=38	=38	=38	=38	=38	=38	=38	=38	=38	=38	=38
8G\L	4g/	.	4b/	.	2.ryy	2.ryy	.	.	2.ryy	2.ryy
8G\	.	.	.	.	.	.	.	.	.	.
8D\	4b 4d/	.	4gg 4b 4d/	.	.	.	.	.	.	.
8G\	.	.	.	.	.	.	.	.	.	.
8BB\	4b 4d/	.	4gg 4b 4d/	.	.	.	.	.	.	.
8D\J	.	.	.	.	.	.	.	.	.	.
=39	=39	=39	=39	=39	=39	=39	=39	=39	=39	=39
4GG/	4b 4d/	.	4gg 4b 4d/	.	2.ryy	2.ryy	4r	.	2.ryy	2.ryy
!LO:TX:a:t=Fin.	!	!	!	!	!	!	!	!	!	!
4G\	4r	.	4r	.	.	.	4r	.	.	.
4r;;	4r	.	4d/	.	.	.	4d/	Lau-	.	.
=40	=40	=40	=40	=40	=40	=40	=40	=40	=40	=40
*>B	*>B	*>B	*>B	*>B	*>B	*>B	*>B	*>B	*>B	*>B
*	*tremolo	*	*	*	*	*	*	*	*	*
!LO:TX:t=P:problem:mixed beam	!LO:TX:a:t=Solo.	!LO:DY:b:rj:t=pia	!	!	!	!	!	!	!	!
8GG/L	8d 8B/L	p	4g/	.	2.ryy	2.ryy	4g\	-da-	2.ryy	2.ryy
8G\J	8d 8B/	.	.	.	.	.	.	.	.	.
!LO:LB:g=original	!	!	!	!	!	!	!	!	!	!
!LO:TX:t=P:problem:mixed beam	!	!	!LO:TX:a:t=Solo	!	!	!	!	!	!	!
8GG/L	8d 8B/	.	16g/LL	.	.	.	16g\LL	.	.	.
.	.	.	16a/	.	.	.	16a\	.	.	.
8G\J	8d 8B/J	.	16b/	.	.	.	16b\	.	.	.
.	.	.	16cc/JJ	.	.	.	16cc\JJ	.	.	.
*	*Xtremolo	*	*	*	*	*	*	*	*	*
8D/L	8dL 8G/	.	16dd\LL	.	.	.	16dd\LL	.	.	.
.	.	.	16cc\	.	.	.	16cc\	.	.	.
8D/J	8dJ 8G/	.	16b\	.	.	.	16b\	.	.	.
.	.	.	16a\JJ	.	.	.	16a\JJ	.	.	.
=41	=41	=41	=41	=41	=41	=41	=41	=41	=41	=41
8.GG/L	8.B/L	.	8.g/L	.	2.ryy	2.ryy	8.g/	.	2.ryy	2.ryy
16D/Jk	16A/Jk	.	16f#/Jk	.	.	.	16f#/	-mus	.	.
8G\L	4B/	.	4g/	.	.	.	4g/	te	.	.
8D\	.	.	.	.	.	.	.	.	.	.
8BB\	8r	.	8r	.	.	.	8r	.	.	.
8GG\J	8g/	.	8b/	.	.	.	8b\	Be-	.	.
!	!	!	!LO:LB:g=original	!	!	!	!	!	!	!
=42	=42	=42	=42	=42	=42	=42	=42	=42	=42	=42
4D/	8f#/L	.	8a/L	.	2.ryy	2.ryy	8a\L	.	2.ryy	2.ryy
.	8a/	.	8cc/	.	.	.	8cc\	.	.	.
4r	8f#/	.	8a/	.	.	.	8a\	.	.	.
.	8e/	.	8g/	.	.	.	8g\	.	.	.
4D\	8d/	.	8f#/	.	.	.	8f#\	.	.	.
.	8f#/J	.	8a/J	.	.	.	8a\J	.	.	.
!	!	!	!	!	!	!	!LO:LB:g=original	!	!	!
=43	=43	=43	=43	=43	=43	=43	=43	=43	=43	=43
4G\	8g/L	.	8b\L	.	2.ryy	2.ryy	8b\L	-ne-	2.ryy	2.ryy
.	8b/	.	8dd\	.	.	.	8dd\	.	.	.
4r	8g/	.	8b\	.	.	.	8b\	.	.	.
.	8f#/	.	8a\J	.	.	.	8a\	.	.	.
4G\	8e/	.	8g/L	.	.	.	8g\	.	.	.
.	8g/J	.	8b/J	.	.	.	8b\J	.	.	.
=44	=44	=44	=44	=44	=44	=44	=44	=44	=44	=44
*tremolo	*	*	*	*	*	*	*	*	*	*
8C/L	8a/L	.	8cc\L	.	2.ryy	2.ryy	8cc\L	-di-	2.ryy	2.ryy
8C/	8cc/	.	8ee\	.	.	.	8ee\	.	.	.
8C/	8a/	.	8cc\	.	.	.	8cc\	.	.	.
8C/J	8g/	.	8b\	.	.	.	8b\	.	.	.
*Xtremolo	*	*	*	*	*	*	*	*	*	*
8C/L	8f#/	.	8a\	.	.	.	8a\	.	.	.
8C#X/J	8e/J	.	8g\J	.	.	.	8g\J	.	.	.
!	!LO:LB:g=original	!	!	!	!	!	!	!	!	!
=45	=45	=45	=45	=45	=45	=45	=45	=45	=45	=45
!LO:TX:t=P:problem:mixed beam	!	!	!	!	!	!	!	!	!	!
8D/L	16f#/LL	.	16a/LL	.	2.ryy	2.ryy	8.g/	-ci-	2.ryy	2.ryy
.	16e/	.	16g/	.	.	.	.	.	.	.
8d\J	16d/	.	16f#/	.	.	.	.	.	.	.
.	16e/JJ	.	16g/JJ	.	.	.	16g/	-mus	.	.
4D/	4d/	.	4f#/	.	.	.	4f#/	te	.	.
4r	4r	.	8r	.	.	.	8r	.	.	.
.	.	.	8a/	.	.	.	8a\	Lau-	.	.
=46	=46	=46	=46	=46	=46	=46	=46	=46	=46	=46
!LO:TX:t=P:problem:mixed beam	!	!	!	!	!	!	!	!	!	!
8D\L	8f#/L	.	8dd\L	.	2.ryy	2.ryy	4dd\	-da-	2.ryy	2.ryy
8D\	8f#/	.	8dd\	.	.	.	.	.	.	.
8A\	8f#/	.	8dd\	.	.	.	8dd\L	.	.	.
8A\	8e/	.	8cc#X\	.	.	.	8cc#X\	.	.	.
8AA/	8g/	.	8ee\	.	.	.	8ee\J	.	.	.
8AA/J	8e/J	.	8g\J	.	.	.	8g/	-mus	.	.
=47	=47	=47	=47	=47	=47	=47	=47	=47	=47	=47
*tremolo	*	*	*	*	*	*	*	*	*	*
!	!	!	!LO:TX:t=P:problem:mixed beam	!	!	!	!	!	!	!
8D\L	8e/L	.	8g/L	.	2.ryy	2.ryy	(8g/L	te	2.ryy	2.ryy
8D\	8d/	.	8f#/	.	.	.	8f#/J)	.	.	.
8D\	8f#/	.	8a/	.	.	.	4r	.	.	.
8D\	8f#/	.	8a/	.	.	.	.	.	.	.
8D\	8a/	.	8ff#\	.	.	.	8ff#\	Be-	.	.
8D\J	8a/J	.	8ff#\J	.	.	.	8ff#\	-ne-	.	.
*Xtremolo	*	*	*	*	*	*	*	*	*	*
=48	=48	=48	=48	=48	=48	=48	=48	=48	=48	=48
4G\	4b\	.	8ee\L	.	2.ryy	2.ryy	8ee\L	-di-	2.ryy	2.ryy
.	.	.	8gg\	.	.	.	8gg\	.	.	.
4r	4r	.	8ee\	.	.	.	8ee\	.	.	.
.	.	.	8dd\	.	.	.	8dd\J	.	.	.
!LO:TX:a:t=gis	!	!	!	!	!	!	!	!	!	!
4G#X\	4b\	.	8cc#X\	.	.	.	8cc#X\	-ci-	.	.
.	.	.	8dd\J	.	.	.	8dd\	-mus	.	.
!LO:LB:g=original	!	!	!	!	!	!	!	!	!	!
=49	=49	=49	=49	=49	=49	=49	=49	=49	=49	=49
*	*	*	*	*	*	*	*Xtuplet	*	*	*
8A\L	8a/L	.	12cc#X/L	.	2.ryy	2.ryy	12cc#X\L	te	2.ryy	2.ryy
.	.	.	12b/	.	.	.	12b\	.	.	.
!	!LO:SIC:v:s=8c#/J	!	!	!	!	!	!	!	!	!
8E\	8c/J	.	.	.	.	.	.	.	.	.
.	.	.	12a/J	.	.	.	12a\J	.	.	.
*	*tremolo	*	*	*	*	*	*	*	*	*
!	!LO:SIC:v:s=8c#/L	!	!	!	!	!	!	!	!	!
8C#X\	8c/L	.	4a/	.	.	.	4a\	.	.	.
!	!LO:SIC:v:s=8c#/	!	!	!	!	!	!	!	!	!
8E\	8c/	.	.	.	.	.	.	.	.	.
!	!LO:SIC:v:s=8c#/	!	!	!	!	!	!LO:LB:g=original	!	!	!
8C#\	8c/	.	8r	.	.	.	8r	.	.	.
!	!LO:SIC:v:s=8c#/J	!	!	!	!	!	!	!	!	!
8AA\J	8c/J	.	8a/	.	.	.	8a\	Lau-	.	.
*	*Xtremolo	*	*	*	*	*	*	*	*	*
!	!	!	!LO:LB:g=original	!	!	!	!	!	!	!
=50	=50	=50	=50	=50	=50	=50	=50	=50	=50	=50
4AA/	(16A/LL	.	(16A/LL	.	2.ryy	2.ryy	8.g/	-da-	2.ryy	2.ryy
.	16e/)	.	16g/)	.	.	.	.	.	.	.
.	16e'/	.	16g'/	.	.	.	.	.	.	.
.	16e'/JJ	.	16g'/JJ	.	.	.	16g/	-mus	.	.
8r	(16A/LL	.	(16A/LL	.	.	.	8g/	te	.	.
.	16e/)	.	16g/)	.	.	.	.	.	.	.
8AA/L	16e'/	.	16g'/	.	.	.	8r	.	.	.
.	16e'/JJ	.	16g'/JJ	.	.	.	.	.	.	.
!LO:SIC:v:s=C#	!	!	!	!	!	!	!	!	!	!
8C/	(16A/LL	.	(16A/LL	.	.	.	(8ee\L	Lau-	.	.
.	16e/)	.	16g/)	.	.	.	.	.	.	.
8E/J	16e'/	.	16g'/	.	.	.	8g\J)	.	.	.
.	16e'/JJ	.	16g'/JJ	.	.	.	.	.	.	.
=51	=51	=51	=51	=51	=51	=51	=51	=51	=51	=51
!	!	!	!	!	!	!	!LO:TX:a:t=f	!	!	!
4D\	(16A/LL	.	(16A/LL	.	2.ryy	2.ryy	8f#/	-da-	2.ryy	2.ryy
.	16d/)	.	16f#/)	.	.	.	.	.	.	.
.	16d'/	.	16f#'/	.	.	.	8a/	-mus	.	.
.	16d'/JJ	.	16f#'/JJ	.	.	.	.	.	.	.
8r	(16A/LL	.	(16A/LL	.	.	.	8dd\	te	.	.
.	16d/)	.	16f#/)	.	.	.	.	.	.	.
8A\L	16d'/	.	16f#'/	.	.	.	8r	.	.	.
.	16d'/JJ	.	16f#'/JJ	.	.	.	.	.	.	.
8F#\	(16A/LL	.	(16A/LL	.	.	.	8.a\	Be-	.	.
.	16d/)	.	16f#/)	.	.	.	.	.	.	.
8D\J	16d'/	.	16f#'/	.	.	.	.	.	.	.
.	16d'/JJ	.	16f#'/JJ	.	.	.	16a\	-ne-	.	.
!	!LO:LB:g=original	!	!	!	!	!	!	!	!	!
=52	=52	=52	=52	=52	=52	=52	=52	=52	=52	=52
4AA/	(16A/LL	.	(16A/LL	.	2.ryy	2.ryy	8.g/	-di-	2.ryy	2.ryy
.	16e/)	.	16g/)	.	.	.	.	.	.	.
.	16e'/	.	16g'/	.	.	.	.	.	.	.
.	16e'/JJ	.	16g'/JJ	.	.	.	16g/	-ci-	.	.
8r	(16A/LL	.	(16A/LL	.	.	.	8g/	-mus	.	.
.	16e/)	.	16g/)	.	.	.	.	.	.	.
8AA/L	16e'/	.	16g'/	.	.	.	8r	.	.	.
.	16e'/JJ	.	16g'/JJ	.	.	.	.	.	.	.
!LO:SIC:v:s=C#	!	!	!	!	!	!	!	!	!	!
8C/	(16A/LL	.	(16A/LL	.	.	.	8ee\	a-	.	.
.	16e/)	.	16g/)	.	.	.	.	.	.	.
8E/J	16e'/	.	16g'/	.	.	.	8g/	-do-	.	.
.	16e'/JJ	.	16g'/JJ	.	.	.	.	.	.	.
=53	=53	=53	=53	=53	=53	=53	=53	=53	=53	=53
4D\	(16A/LL	.	(16A/LL	.	2.ryy	2.ryy	8f#\	-ra-	2.ryy	2.ryy
.	16d/)	.	16f#/)	.	.	.	.	.	.	.
.	16d'/	.	16f#'/	.	.	.	8a\	-mus	.	.
.	16d'/JJ	.	16f#'/JJ	.	.	.	.	.	.	.
8r	(16A/LL	.	(16A/LL	.	.	.	8dd\	te	.	.
.	16d/)	.	16f#/)	.	.	.	.	.	.	.
8A\L	16d'/	.	16f#'/	.	.	.	8r	.	.	.
.	16d'/JJ	.	16f#'/JJ	.	.	.	.	.	.	.
8F#\	(16A/LL	.	(16A/LL	.	.	.	8r	.	.	.
.	16d/)	.	16f#/)	.	.	.	.	.	.	.
8D\J	16d'/	.	16f#'/	.	.	.	8a\	Lau-	.	.
.	16d'/JJ	.	16f#'/JJ	.	.	.	.	.	.	.
=54	=54	=54	=54	=54	=54	=54	=54	=54	=54	=54
4AA/	(16A/LL	.	(16A/LL	.	2.ryy	2.ryy	8g/	-da-	2.ryy	2.ryy
.	16e/)	.	16g/)	.	.	.	.	.	.	.
.	16e'/	.	16g'/	.	.	.	8g/	-mus	.	.
.	16e'/JJ	.	16g'/JJ	.	.	.	.	.	.	.
8r	(16A/LL	.	(16A/LL	.	.	.	8g/	te	.	.
.	16e/)	.	16g/)	.	.	.	.	.	.	.
8AA/L	16e'/	.	16g'/	.	.	.	8r	.	.	.
.	16e'/JJ	.	16g'/JJ	.	.	.	.	.	.	.
!LO:SIC:v:s=C#	!	!	!LO:LB:g=original	!	!	!	!LO:LB:g=original	!	!	!
8C/	(16A/LL	.	(16A/LL	.	.	.	(8ee\	Lau-	.	.
.	16e/)	.	16g/)	.	.	.	.	.	.	.
8E/J	16e'/	.	16g'/	.	.	.	8g/)	.	.	.
.	16e'/JJ	.	16g'/JJ	.	.	.	.	.	.	.
=55	=55	=55	=55	=55	=55	=55	=55	=55	=55	=55
4D\	(16A/LL	.	(16A/LL	.	2.ryy	2.ryy	8f#/	-da-	2.ryy	2.ryy
.	16d/)	.	16f#/)	.	.	.	.	.	.	.
.	16d'/	.	16f#'/	.	.	.	8a\	-mus	.	.
.	16d'/JJ	.	16f#'/JJ	.	.	.	.	.	.	.
8r	(16A/LL	.	(16A/LL	.	.	.	8dd\	te	.	.
.	16d/)	.	16f#/)	.	.	.	.	.	.	.
8A\L	16d'/	.	16f#'/	.	.	.	8r	.	.	.
.	16d'/JJ	.	16f#'/JJ	.	.	.	.	.	.	.
8F#\	(16A/LL	.	(16A/LL	.	.	.	8.a\	Be-	.	.
.	16d/)	.	16f#/)	.	.	.	.	.	.	.
8D\J	16d'/	.	16f#'/	.	.	.	.	.	.	.
.	16d'/JJ	.	16f#'/JJ	.	.	.	16a\	-ne-	.	.
=56	=56	=56	=56	=56	=56	=56	=56	=56	=56	=56
4AA/	(16A/LL	.	(16A/LL	.	2.ryy	2.ryy	8.g/	-di-	2.ryy	2.ryy
.	16e/)	.	16g/)	.	.	.	.	.	.	.
.	16e'/	.	16g'/	.	.	.	.	.	.	.
.	16e'/JJ	.	16g'/JJ	.	.	.	16g/	-ci-	.	.
8r	(16A/LL	.	(16A/LL	.	.	.	8g/	-mus	.	.
.	16e/)	.	16g/)	.	.	.	.	.	.	.
8AA/L	16e'/	.	16g'/	.	.	.	8r	.	.	.
.	16e'/JJ	.	16g'/JJ	.	.	.	.	.	.	.
!LO:SIC:v:s=C#	!LO:LB:g=original	!	!	!	!	!	!	!	!	!
8C/	(16A/LL	.	(16A/LL	.	.	.	8ee\	a-	.	.
.	16e/)	.	16g/)	.	.	.	.	.	.	.
8E/J	16e'/	.	16g'/	.	.	.	8g/	-do-	.	.
.	16e'/JJ	.	16g'/JJ	.	.	.	.	.	.	.
!LO:LB:g=original	!	!	!	!	!	!	!	!	!	!
=57	=57	=57	=57	=57	=57	=57	=57	=57	=57	=57
4D\	(16A/LL	.	(16A/LL	.	2.ryy	2.ryy	8f#/	-ra-	2.ryy	2.ryy
.	16d/)	.	16f#/)	.	.	.	.	.	.	.
.	16d'/	.	16f#'/	.	.	.	8a\	-mus	.	.
.	16d'/JJ	.	16f#'/JJ	.	.	.	.	.	.	.
8r	(16A/LL	.	(16A/LL	.	.	.	8dd\	te	.	.
.	16d/)	.	16f#/)	.	.	.	.	.	.	.
8A\L	16d'/	.	16f#'/	.	.	.	8r	.	.	.
.	16d'/JJ	.	16f#'/JJ	.	.	.	.	.	.	.
8F#\	(16A/LL	.	(16A/LL	.	.	.	4r	.	.	.
.	16d/)	.	16f#/)	.	.	.	.	.	.	.
8D\J	16d'/	.	16f#'/	.	.	.	.	.	.	.
.	16d'/JJ	.	16f#'/JJ	.	.	.	.	.	.	.
=58	=58	=58	=58	=58	=58	=58	=58	=58	=58	=58
*tremolo	*tremolo	*	*tremolo	*	*	*	*	*	*	*
*	*	*	*2\right	*	*	*	*	*	*	*
!	!LO:TX:t=P:problem:tremolo połączone belką z ósemkami	!	!LO:TX:t=P:problem:tremolo połączone belką z ósemkami	!	!	!	!	!	!	!
8G\L	8d/L	.	8b\L	.	2.ryy	2.ryy	4b\	a-	2.ryy	2.ryy
8G\	8d/	.	8b\	.	.	.	.	.	.	.
8G\	8d/	.	8b\	.	.	.	16b\LL	.	.	.
.	.	.	.	.	.	.	16dd\	.	.	.
8G\J	8d/J	.	8b\J	.	.	.	16cc#X\	.	.	.
.	.	.	.	.	.	.	16b\JJ	.	.	.
*Xtremolo	*Xtremolo	*	*Xtremolo	*	*	*	*	*	*	*
8E\L	8a/L	.	8cc#X\L	.	.	.	16cc#\LL	.	.	.
.	.	.	.	.	.	.	16ee\	.	.	.
8E\J	8a/J	.	8cc#\J	.	.	.	16dd\	.	.	.
.	.	.	.	.	.	.	16cc#\JJ	.	.	.
=59	=59	=59	=59	=59	=59	=59	=59	=59	=59	=59
*tremolo	*tremolo	*	*tremolo	*	*	*	*	*	*	*
*	*2\right	*	*	*	*	*	*	*	*	*
!	!LO:TX:t=P:problem:tremolo połączone belką z ósemkami	!	!	!	!	!	!	!	!	!
8D\L	8b\L	.	8dd\L	.	2.ryy	2.ryy	4dd\	.	2.ryy	2.ryy
8D\	8b\	.	8dd\	.	.	.	.	.	.	.
8D\	8b\	.	8dd\	.	.	.	16dd\LL	.	.	.
.	.	.	.	.	.	.	16ff#\	.	.	.
8D\J	8b\J	.	8dd\J	.	.	.	16ee\	.	.	.
.	.	.	.	.	.	.	16dd\JJ	.	.	.
*Xtremolo	*Xtremolo	*	*Xtremolo	*	*	*	*	*	*	*
8A\L	8cc#X\L	.	8ee\L	.	.	.	16ee\LL	.	.	.
.	.	.	.	.	.	.	16gg\	.	.	.
8A\J	8cc#\J	.	8ee\J	.	.	.	16ff#\	.	.	.
.	.	.	.	.	.	.	16ee\JJ	.	.	.
!	!	!	!	!	!	!	!LO:LB:g=original	!	!	!
=60	=60	=60	=60	=60	=60	=60	=60	=60	=60	=60
*tremolo	*	*	*	*	*	*	*	*	*	*
!LO:SIC:v:s=8C/L	!	!	!	!	!	!	!	!	!	!
8C/L	8dd\L	.	8ff#\L	.	2.ryy	2.ryy	8ff#\L	.	2.ryy	2.ryy
!LO:SIC:v:s=8C/	!	!	!	!	!	!	!	!	!	!
8C/	8ff#\	.	8aa\	.	.	.	8aa\	.	.	.
!LO:SIC:v:s=8C/	!	!	!	!	!	!	!	!	!	!
8C/	8ee\	.	8gg\	.	.	.	8gg\	.	.	.
!LO:SIC:v:s=8C/	!	!	!	!	!	!	!	!	!	!
8C/	8dd\	.	8ff#\	.	.	.	8ff#\J	.	.	.
!LO:SIC:v:s=8C/	!	!	!	!	!	!	!	!	!	!
8C/	8cc#X\	.	8ee\	.	.	.	(8ff#\L	-do-	.	.
!LO:SIC:v:s=8C/J	!	!	!	!	!	!	!	!	!	!
8C/J	8b\J	.	8dd\J	.	.	.	8ee\J)	.	.	.
*Xtremolo	*	*	*	*	*	*	*	*	*	*
!	!	!	!LO:LB:g=original	!	!	!	!	!	!	!
=61	=61	=61	=61	=61	=61	=61	=61	=61	=61	=61
*	*tremolo	*	*	*	*	*	*	*	*	*
!LO:TX:t=P:problem:mixed beam	!	!	!	!	!	!	!	!	!	!
8A\L	16a/LL	.	16a/LL	.	2.ryy	2.ryy	8.a\	-ra-	2.ryy	2.ryy
.	16a/	.	16a/	.	.	.	.	.	.	.
8A\	16a/	.	16a/	.	.	.	.	.	.	.
.	16a/JJ	.	16a/JJ	.	.	.	16ee\	.	.	.
*	*Xtremolo	*	*tremolo	*	*	*	*	*	*	*
8AA/	16cc#X\LL	.	16ff#\LL	.	.	.	4.ee\	.	.	.
.	16cc#\	.	16ff#\	.	.	.	.	.	.	.
8AA/	16cc#\	.	16ff#\	.	.	.	.	.	.	.
.	16cc#\JJ	.	16ff#\	.	.	.	.	.	.	.
*	*tremolo	*	*	*	*	*	*	*	*	*
8AA/	16cc#\LL	.	16ff#\	.	.	.	.	.	.	.
.	16cc#\	.	16ff#\	.	.	.	.	.	.	.
8AA/J	16cc#\	.	16ff#\	.	.	.	8ee\	-mus	.	.
.	16cc#\JJ	.	16ff#\JJ	.	.	.	.	.	.	.
*	*Xtremolo	*	*Xtremolo	*	*	*	*	*	*	*
=62	=62	=62	=62	=62	=62	=62	=62	=62	=62	=62
*	*^	*	*	*	*	*	*	*	*	*
*tremolo	*	*	*	*	*	*	*	*	*	*	*
!	!	!	!LO:DY:b:t=for.	!LO:TX:a:t=Tut.	!LO:DY:b:t=for.	!	!	!	!	!	!
8D\L	8dd/L	8ryy	f	4dd\	f	2.ryy	2.ryy	4dd\	te	2.ryy	2.ryy
8D\	8a/	8f#\L	.	.	.	.	.	.	.	.	.
8D\	8a/	8f#\	.	16dd\LL	.	.	.	4r	.	.	.
.	.	.	.	16ff#\	.	.	.	.	.	.	.
8D\J	8a/J	8f#\J	.	16aa\	.	.	.	.	.	.	.
.	.	.	.	16ff#\JJ	.	.	.	.	.	.	.
*Xtremolo	*	*	*	*	*	*	*	*	*	*	*
!LO:TX:t=P:problem:mixed beam	!	!	!	!	!	!	!	!	!	!	!
8A\L	8a/L	8e\L	.	16gg\LL	.	.	.	4r	.	.	.
.	.	.	.	16ee\	.	.	.	.	.	.	.
8AA/J	8a/J	8e\J	.	16dd\	.	.	.	.	.	.	.
.	.	.	.	16cc#X\JJ	.	.	.	.	.	.	.
!	!LO:LB:g=original	!LO:LB:g=original	!	!	!	!	!	!	!	!	!
=63	=63	=63	=63	=63	=63	=63	=63	=63	=63	=63	=63
*tremolo	*tremolo	*tremolo	*	*	*	*	*	*	*	*	*
8D\L	8a/L	8g\L	.	4dd\	.	2.ryy	2.ryy	1.r	.	2.ryy	2.ryy
8D\	8a/	8g\	.	.	.	.	.	.	.	.	.
8D\	8a/	8g\	.	16dd\LL	.	.	.	.	.	.	.
.	.	.	.	16ff#\	.	.	.	.	.	.	.
8D\J	8a/J	8g\J	.	16aa\	.	.	.	.	.	.	.
.	.	.	.	16ff#\JJ	.	.	.	.	.	.	.
*Xtremolo	*Xtremolo	*Xtremolo	*	*	*	*	*	*	*	*	*
!LO:TX:t=P:problem:mixed beam	!	!	!	!	!	!	!	!	!	!	!
8A\L	8a/L	8e\L	.	16gg\LL	.	.	.	.	.	.	.
.	.	.	.	16ee\	.	.	.	.	.	.	.
8AA/J	8a/J	8e\J	.	16dd\	.	.	.	.	.	.	.
.	.	.	.	16cc#X\JJ	.	.	.	.	.	.	.
*	*v	*v	*	*	*	*	*	*	*	*	*
=64	=64	=64	=64	=64	=64	=64	=64	=64	=64	=64
8D\L	4f#/	.	4dd\	.	2.ryy	2.ryy	.	.	2.ryy	2.ryy
8d\	.	.	.	.	.	.	.	.	.	.
8A\	4ff# 4a 4d/	.	4ff# 4a 4d/	.	.	.	.	.	.	.
8d\	.	.	.	.	.	.	.	.	.	.
8F#\	4ff# 4a 4d/	.	4ff# 4a 4d/	.	.	.	.	.	.	.
8A\J	.	.	.	.	.	.	.	.	.	.
=65	=65	=65	=65	=65	=65	=65	=65	=65	=65	=65
4D\	4ff# 4a 4d/	.	4ff# 4a 4d/	.	2.ryy	2.ryy	4r	.	2.ryy	2.ryy
4d\	4r	.	4r	.	.	.	4r	.	.	.
4r	4r	.	4a/	.	.	.	4a\	Glo-	.	.
!LO:LB:g=original	!	!	!	!	!	!	!	!	!	!
=66	=66	=66	=66	=66	=66	=66	=66	=66	=66	=66
*tremolo	*tremolo	*	*tremolo	*	*	*	*	*	*	*
!	!LO:SIC:v:s=8f#/L	!	!LO:TX:a:t=Solo	!LO:DY:b:t=pia.	!	!	!	!	!	!
8D\L	8g/L	.	8dd\L	p	2.ryy	2.ryy	4dd\	.	2.ryy	2.ryy
!	!LO:SIC:v:s=8f#/	!	!	!	!	!	!	!	!	!
8D\	8g/	.	8dd\	.	.	.	.	.	.	.
!	!LO:SIC:v:s=8f#/	!	!	!	!	!	!	!	!	!
8D\	8g/	.	8dd\	.	.	.	8dd\L	.	.	.
!	!LO:SIC:v:s=8f#/	!	!	!	!	!	!	!	!	!
8D\	8g/	.	8dd\	.	.	.	8ff#\J	.	.	.
!	!LO:SIC:v:s=8f#/	!	!	!	!	!	!	!	!	!
8D\	8g/	.	8dd\	.	.	.	8aa\	-ri-	.	.
!	!LO:SIC:v:s=8f#/J	!	!	!	!	!	!	!	!	!
8D\J	8g/J	.	8dd\J	.	.	.	8ff#\	-fi-	.	.
*Xtremolo	*Xtremolo	*	*	*	*	*	*	*	*	*
=67	=67	=67	=67	=67	=67	=67	=67	=67	=67	=67
!	!	!	!	!	!	!	!LO:N:vis=4.	!	!	!
8r	8r	.	8r	.	2.ryy	2.ryy	8.dd\	-ca-	2.ryy	2.ryy
!LO:TX:t=P:problem:mixed beam	!	!	!LO:TX:t=P:problem:ósemka połączona belką z tremolo	!	!	!	!	!	!	!
8A\L	8a/	.	8cc#X\	.	.	.	.	.	.	.
.	.	.	.	.	.	.	16cc#X\	-mus	.	.
8AA/	8a/L	.	8dd\L	.	.	.	4dd\	te	.	.
8AA/	8a/	.	8dd\	.	.	.	.	.	.	.
8D/	8a/	.	8dd\	.	.	.	8r	.	.	.
8D/J	8a/J	.	8dd\J	.	.	.	8dd\	glo-	.	.
!	!	!	!	!	!	!	!LO:LB:g=original	!	!	!
=68	=68	=68	=68	=68	=68	=68	=68	=68	=68	=68
*	*^	*	*	*	*	*	*	*	*	*
*tremolo	*tremolo	*tremolo	*	*	*	*	*	*2\right	*	*	*
!	!	!LO:SIC:v:s=8f#\L	!	!	!	!	!	!	!	!	!
8D/L	8a/L	8g\L	.	8ccn\L	.	2.ryy	2.ryy	2cc\	-ri-	2.ryy	2.ryy
!	!	!LO:SIC:v:s=8f#\	!	!	!	!	!	!	!	!	!
8D/	8a/	8g\	.	8ccn\	.	.	.	.	.	.	.
!	!	!LO:SIC:v:s=8f#\	!	!	!	!	!	!	!	!	!
8D/	8a/	8g\	.	8ccn\	.	.	.	.	.	.	.
!	!	!LO:SIC:v:s=8f#\	!	!	!	!	!	!	!	!	!
8D/	8a/	8g\	.	8ccn\	.	.	.	.	.	.	.
!	!	!LO:SIC:v:s=8f#\	!	!	!	!	!	!	!	!	!
8D/	8a/	8g\	.	8ccn\	.	.	.	4cc\	-fi-	.	.
!	!	!LO:SIC:v:s=8f#\J	!	!	!	!	!	!	!	!	!
8D/J	8a/J	8g\J	.	8ccn\J	.	.	.	.	.	.	.
*Xtremolo	*Xtremolo	*Xtremolo	*	*Xtremolo	*	*	*	*	*	*	*
=69	=69	=69	=69	=69	=69	=69	=69	=69	=69	=69	=69
8D/L	8a/L	8f#\L	.	8cc\L	.	2.ryy	2.ryy	4cc\	-ca-	2.ryy	2.ryy
8D/	8a/	8f#\J	.	8cc\	.	.	.	.	.	.	.
8D/	8a/	4ryy	.	8cc\	.	.	.	8cc\L	.	.	.
8D/	8cc/	.	.	8ee\	.	.	.	8ee\	.	.	.
8D/	8b/	4ryy	.	8dd\	.	.	.	8dd\	-mus	.	.
8D/J	8a/J	.	.	8cc\J	.	.	.	8cc\J	.	.	.
*	*v	*v	*	*	*	*	*	*	*	*	*
!	!	!	!LO:LB:g=original	!	!	!	!	!	!	!
=70	=70	=70	=70	=70	=70	=70	=70	=70	=70	=70
!LO:TX:t=P:problem:mixed beam	!	!	!	!	!	!	!	!	!	!
.	.	.	.	.	.	.	8qqcc/	.	.	.
!	!	!	!LO:TX:t=P:problem:ósemki połączone belką z tremolo	!	!	!	!	!	!	!
8G\L	8a/L	.	8cc\L	.	2.ryy	2.ryy	4b\	te	2.ryy	2.ryy
8GG/	8g/J	.	8b\J	.	.	.	.	.	.	.
*	*tremolo	*	*tremolo	*	*	*	*	*	*	*
8GG/	8b\L	.	8dd\L	.	.	.	4dd\	gra-	.	.
8GG/	8b\	.	8dd\	.	.	.	.	.	.	.
8GG/	8b\	.	8dd\	.	.	.	8.dd\	-ti-	.	.
8GG/J	8b\J	.	8dd\J	.	.	.	.	.	.	.
.	.	.	.	.	.	.	16dd\	-as	.	.
*	*Xtremolo	*	*Xtremolo	*	*	*	*	*	*	*
!	!LO:PB:g=original	!	!	!	!	!	!	!	!	!
=71	=71	=71	=71	=71	=71	=71	=71	=71	=71	=71
8C/	8cc\	.	16ee\LL	.	2.ryy	2.ryy	8.ee\	a-	2.ryy	2.ryy
.	.	.	16cc\	.	.	.	.	.	.	.
8r	8r	.	16b\	.	.	.	.	.	.	.
.	.	.	16cc\JJ	.	.	.	16ee\	-gi-	.	.
8c\	8ee\	.	16g/LL	.	.	.	4ee\	-mus	.	.
.	.	.	16cc/	.	.	.	.	.	.	.
8r	8r	.	16e/	.	.	.	.	.	.	.
.	.	.	16g/JJ	.	.	.	.	.	.	.
!	!	!	!LO:TX:t=P:problem:mixed beam	!	!	!	!	!	!	!
8c\	8ee\	.	8c/L	.	.	.	4r	.	.	.
8r	8r	.	8cc\J	.	.	.	.	.	.	.
=72	=72	=72	=72	=72	=72	=72	=72	=72	=72	=72
4C/	8cc\	.	8ee\	.	2.ryy	2.ryy	16ee\LL	a-	2.ryy	2.ryy
.	.	.	.	.	.	.	16cc\	.	.	.
.	8r	.	8r	.	.	.	16b\	.	.	.
.	.	.	.	.	.	.	16cc\JJ	.	.	.
4r	8cc\	.	8ee\	.	.	.	16a\LL	.	.	.
.	.	.	.	.	.	.	16cc\	.	.	.
.	8r	.	8r	.	.	.	16b\	.	.	.
.	.	.	.	.	.	.	16cc\JJ	.	.	.
4r	8cc\	.	8ee\	.	.	.	16ee\LL	.	.	.
.	.	.	.	.	.	.	16cc\	.	.	.
.	8r	.	8r	.	.	.	16gg\	.	.	.
.	.	.	.	.	.	.	16ee\JJ	.	.	.
=73	=73	=73	=73	=73	=73	=73	=73	=73	=73	=73
8GG/	8b\	.	16dd\LL	.	2.ryy	2.ryy	8.dd\	-a-	2.ryy	2.ryy
.	.	.	16b\	.	.	.	.	.	.	.
8r	8r	.	16a\	.	.	.	.	.	.	.
.	.	.	16b\JJ	.	.	.	16dd\	-gi-	.	.
8G\	8dd\	.	16g/LL	.	.	.	4dd\	-mus	.	.
.	.	.	16b/	.	.	.	.	.	.	.
8r	8r	.	16d/	.	.	.	.	.	.	.
.	.	.	16g/JJ	.	.	.	.	.	.	.
8G\	8dd\	.	8B/L	.	.	.	4r	.	.	.
8r	8r	.	8b/J	.	.	.	.	.	.	.
!	!	!	!	!	!	!	!LO:LB:g=original	!	!	!
=74	=74	=74	=74	=74	=74	=74	=74	=74	=74	=74
4GG/	8b\	.	8dd\	.	2.ryy	2.ryy	16dd\LL	a-	2.ryy	2.ryy
.	.	.	.	.	.	.	16b\	.	.	.
.	8r	.	8r	.	.	.	16a\	.	.	.
.	.	.	.	.	.	.	16b\JJ	.	.	.
4r	8b\	.	8dd\	.	.	.	16g\LL	.	.	.
.	.	.	.	.	.	.	16b\	.	.	.
.	8r	.	8r	.	.	.	16a\	.	.	.
.	.	.	.	.	.	.	16b\JJ	.	.	.
4r	8b\	.	8dd\	.	.	.	16dd\LL	.	.	.
.	.	.	.	.	.	.	16b\	.	.	.
.	8r	.	8r	.	.	.	16gg\	.	.	.
.	.	.	.	.	.	.	16dd\JJ	.	.	.
=75	=75	=75	=75	=75	=75	=75	=75	=75	=75	=75
8D/	8a\	.	16cc/LL	.	2.ryy	2.ryy	8.cc\	-a-	2.ryy	2.ryy
.	.	.	16a/	.	.	.	.	.	.	.
8r	8r	.	16g#X/	.	.	.	.	.	.	.
.	.	.	16a/JJ	.	.	.	16cc\	-gi-	.	.
8D/	8cc\	.	16f#/LL	.	.	.	4cc\	-mus	.	.
.	.	.	16a/	.	.	.	.	.	.	.
8r	8r	.	16d/	.	.	.	.	.	.	.
.	.	.	16a/JJ	.	.	.	.	.	.	.
8D/	8cc\	.	8A/L	.	.	.	4r	.	.	.
8r	8r	.	8a/J	.	.	.	.	.	.	.
!LO:LB:g=original	!	!	!LO:LB:g=original	!	!	!	!	!	!	!
=76	=76	=76	=76	=76	=76	=76	=76	=76	=76	=76
8D/	8a/	.	8cc\	.	2.ryy	2.ryy	16cc\LL	a-	2.ryy	2.ryy
.	.	.	.	.	.	.	16a\	.	.	.
8r	8r	.	8r	.	.	.	16g#X\	.	.	.
.	.	.	.	.	.	.	16a\JJ	.	.	.
4r	8a/	.	8cc\	.	.	.	16d/LL	.	.	.
.	.	.	.	.	.	.	16a/	.	.	.
.	8r	.	8r	.	.	.	16g#/	.	.	.
.	.	.	.	.	.	.	16a/JJ	.	.	.
4r	8a/	.	8cc\	.	.	.	16cc\LL	.	.	.
.	.	.	.	.	.	.	16a\	.	.	.
.	8r	.	8r	.	.	.	16ee\	.	.	.
.	.	.	.	.	.	.	16cc\JJ	.	.	.
!	!LO:LB:g=original	!	!	!	!	!	!	!	!	!
=77	=77	=77	=77	=77	=77	=77	=77	=77	=77	=77
4G\	8g/L	.	8b\L	.	2.ryy	2.ryy	8b\L	-a-	2.ryy	2.ryy
.	8b/J	.	8dd\J	.	.	.	8dd\J	.	.	.
4C/	12cc/L	.	12ee\L	.	.	.	12ee\L	.	.	.
.	12b/	.	12dd\	.	.	.	12dd\	.	.	.
.	12a/J	.	12cc\J	.	.	.	12cc\J	.	.	.
4C#X/	12g/L	.	12b/L	.	.	.	12b\L	-gi-	.	.
.	12f#/	.	12a/	.	.	.	12a\	-mus	.	.
.	12e/J	.	12g/J	.	.	.	12g\J	.	.	.
=78	=78	=78	=78	=78	=78	=78	=78	=78	=78	=78
8r	16f#/LL	.	16a/LL	.	2.ryy	2.ryy	4gT/	ti-	2.ryy	2.ryy
.	16e/	.	16g/	.	.	.	.	.	.	.
8D\L	16d/	.	16f#/	.	.	.	.	.	.	.
.	16e/JJ	.	16g/JJ	.	.	.	.	.	.	.
8F#\	4d/	.	4f#/	.	.	.	4f#/	-bi	.	.
8A\	.	.	.	.	.	.	.	.	.	.
8F#\	4r	.	4r	.	.	.	4r	.	.	.
8D\J	.	.	.	.	.	.	.	.	.	.
!	!	!	!	!	!	!	!LO:LB:g=original	!	!	!
=79	=79	=79	=79	=79	=79	=79	=79	=79	=79	=79
*	*^	*	*	*	*	*	*	*	*	*
8D/	8a/	8f#\	.	16d/LL	.	2.ryy	2.ryy	16dd\LL	Pro-	2.ryy	2.ryy
.	.	.	.	16f#/	.	.	.	16cc\	.	.	.
8r	8r	8ryy	.	16a/	.	.	.	16b\	.	.	.
.	.	.	.	16cc/JJ	.	.	.	16cc\JJ	.	.	.
8D/	8a/	8f#\	.	16d/LL	.	.	.	4a\	-pter	.	.
.	.	.	.	16f#/	.	.	.	.	.	.	.
8r	8r	8ryy	.	16a/	.	.	.	.	.	.	.
.	.	.	.	16cc/JJ	.	.	.	.	.	.	.
8D/	8a/	8f#\	.	16d/LL	.	.	.	4r	.	.	.
.	.	.	.	16f#/	.	.	.	.	.	.	.
8r	8r	8ryy	.	16a/	.	.	.	.	.	.	.
.	.	.	.	16cc/JJ	.	.	.	.	.	.	.
*	*v	*v	*	*	*	*	*	*	*	*	*
=80	=80	=80	=80	=80	=80	=80	=80	=80	=80	=80
8GG/	8b 8d/	.	16d/LL	.	2.ryy	2.ryy	16ee\LL	ma-	2.ryy	2.ryy
.	.	.	16g/	.	.	.	16dd\	.	.	.
8r	8r	.	16b/	.	.	.	16cc\	.	.	.
.	.	.	16dd/JJ	.	.	.	16dd\JJ	.	.	.
8GG/	8b 8d/	.	16d/LL	.	.	.	4dd\	-gnam	.	.
.	.	.	16g/	.	.	.	.	.	.	.
8r	8r	.	16b/	.	.	.	.	.	.	.
.	.	.	16dd/JJ	.	.	.	.	.	.	.
8GG/	8b 8d/	.	16d/LL	.	.	.	4r	.	.	.
.	.	.	16g/	.	.	.	.	.	.	.
8r	8r	.	16b/	.	.	.	.	.	.	.
.	.	.	16dd/JJ	.	.	.	.	.	.	.
=81	=81	=81	=81	=81	=81	=81	=81	=81	=81	=81
*	*^	*	*	*	*	*	*	*	*	*
*	*	*	*	*	*	*	*	*	*ij	*	*
8D/	8a/	8f#\	.	16d/LL	.	2.ryy	2.ryy	16dd\LL	Pro-	2.ryy	2.ryy
.	.	.	.	16f#/	.	.	.	16cc\	.	.	.
8r	8r	8ryy	.	16a/	.	.	.	16b\	.	.	.
.	.	.	.	16cc/JJ	.	.	.	16cc\JJ	.	.	.
8D/	8a/	8f#\	.	16d/LL	.	.	.	4a\	-pter	.	.
.	.	.	.	16f#/	.	.	.	.	.	.	.
8r	8r	8ryy	.	16a/	.	.	.	.	.	.	.
.	.	.	.	16cc/JJ	.	.	.	.	.	.	.
!	!	!	!	!LO:LB:g=original	!	!	!	!	!	!	!
8D/	8a/	8f#\	.	16d/LL	.	.	.	4r	.	.	.
.	.	.	.	16f#/	.	.	.	.	.	.	.
8r	8r	8ryy	.	16a/	.	.	.	.	.	.	.
.	.	.	.	16cc/JJ	.	.	.	.	.	.	.
*	*v	*v	*	*	*	*	*	*	*	*	*
=82	=82	=82	=82	=82	=82	=82	=82	=82	=82	=82
8GG/	8b 8d/	.	16d/LL	.	2.ryy	2.ryy	16ee\LL	ma-	2.ryy	2.ryy
.	.	.	16g/	.	.	.	16dd\	.	.	.
8r	8r	.	16b/	.	.	.	16cc\	.	.	.
.	.	.	16dd/JJ	.	.	.	16dd\JJ	.	.	.
8GG/	8b 8d/	.	16d/LL	.	.	.	4dd\	-gnam	.	.
*	*	*	*	*	*	*	*	*Xij	*	*
.	.	.	16g/	.	.	.	.	.	.	.
8r	8r	.	16b/	.	.	.	.	.	.	.
.	.	.	16dd/JJ	.	.	.	.	.	.	.
8GG/	8b 8d/	.	16d/LL	.	.	.	4r	.	.	.
.	.	.	16g/	.	.	.	.	.	.	.
8r	8r	.	16b/	.	.	.	.	.	.	.
.	.	.	16dd/JJ	.	.	.	.	.	.	.
!	!LO:LB:g=original	!	!	!	!	!	!	!	!	!
=83	=83	=83	=83	=83	=83	=83	=83	=83	=83	=83
8C/L	16dd\LL	.	12ee\L	.	2.ryy	2.ryy	16ff#X\LL	glo-	2.ryy	2.ryy
.	16cc\	.	.	.	.	.	16ee\JJ	.	.	.
.	.	.	24ff#\L	.	.	.	.	.	.	.
8C/	16b\	.	24ee\	.	.	.	16dd\LL	-ri-	.	.
.	.	.	24dd\	.	.	.	.	.	.	.
.	16a\JJ	.	.	.	.	.	16cc\JJ	.	.	.
.	.	.	24cc\JJ	.	.	.	.	.	.	.
*	*tremolo	*	*tremolo	*	*	*	*	*	*	*
8D/	16g/LL	.	16b/LL	.	.	.	4b\	-am	.	.
.	16g/	.	16b/	.	.	.	.	.	.	.
8D/	16g/	.	16b/	.	.	.	.	.	.	.
.	16g/JJ	.	16b/JJ	.	.	.	.	.	.	.
8DD/	16f#/LL	.	16a/LL	.	.	.	4aT\	tu-	.	.
.	16f#/	.	16a/	.	.	.	.	.	.	.
8DD/J	16f#/	.	16a/	.	.	.	.	.	.	.
.	16f#/JJ	.	16a/JJ	.	.	.	.	.	.	.
*	*	*	*Xtremolo	*	*	*	*	*	*	*
!LO:PB:g=original	!	!	!	!	!	!	!	!	!	!
=84	=84	=84	=84	=84	=84	=84	=84	=84	=84	=84
*tremolo	*	*	*	*	*	*	*	*	*	*
8GG/L	8g/L	.	8g/L	.	2.ryy	2.ryy	4g\	-am	2.ryy	2.ryy
8GG/	8g/	.	8g/	.	.	.	.	.	.	.
8GG/	8g/	.	8b/	.	.	.	8b\L	glo-	.	.
8GG/J	8g/J	.	8b/	.	.	.	16a\L	.	.	.
.	.	.	.	.	.	.	16b\JJ	.	.	.
*Xtremolo	*Xtremolo	*	*	*	*	*	*	*	*	*
8D/L	8a/L	.	8cc/	.	.	.	8cc\L	.	.	.
8D/J	8a/J	.	8cc/J	.	.	.	16b\L	.	.	.
.	.	.	.	.	.	.	16cc\JJ	.	.	.
!	!	!	!	!	!	!	!LO:PB:g=original	!	!	!
=85	=85	=85	=85	=85	=85	=85	=85	=85	=85	=85
!LO:TX:t=P:problem:mixed beam	!	!	!	!	!	!	!LO:TX:t=P:problem:dalszy ciąg na skanie nr 7	!	!	!
8G\L	8b\L	.	8dd\L	.	2.ryy	2.ryy	8dd\L	.	2.ryy	2.ryy
8G\	8b\	.	8dd\	.	.	.	16cc\L	.	.	.
.	.	.	.	.	.	.	16dd\JJ	.	.	.
8C/	8cc\	.	8ee\	.	.	.	8ee\L	.	.	.
8C/	8cc\	.	8ee\	.	.	.	16dd\L	.	.	.
.	.	.	.	.	.	.	16ee\JJ	.	.	.
8D/	8dd\	.	8ff#\	.	.	.	8ff#\L	-ri-	.	.
8D/J	8dd\J	.	8ff#\J	.	.	.	16ee\L	.	.	.
.	.	.	.	.	.	.	16ff#\JJ	.	.	.
=86	=86	=86	=86	=86	=86	=86	=86	=86	=86	=86
8G\L	8b\	.	8gg\	.	2.ryy	2.ryy	4gg\	-am	2.ryy	2.ryy
8B\	4b\	.	4gg\	.	.	.	.	.	.	.
8G\	.	.	.	.	.	.	4r	.	.	.
8F#\	4b\	.	4gg\	.	.	.	.	.	.	.
8E\	.	.	.	.	.	.	4r	.	.	.
8D\J	[8b\	.	[<8gg\	.	.	.	.	.	.	.
=87	=87	=87	=87	=87	=87	=87	=87	=87	=87	=87
8E\L	8b\]	.	8gg\]	.	2.ryy	2.ryy	2.r	.	2.ryy	2.ryy
8G\	4b\	.	4gg\	.	.	.	.	.	.	.
8E\	.	.	.	.	.	.	.	.	.	.
8D\	4b\	.	4gg\	.	.	.	.	.	.	.
8C\	.	.	.	.	.	.	.	.	.	.
8BB\J	8b\	.	[<8gg\	.	.	.	.	.	.	.
!	!	!	!LO:LB:g=original	!	!	!	!	!	!	!
=88	=88	=88	=88	=88	=88	=88	=88	=88	=88	=88
8C/L	8b\	.	8gg\]	.	2.ryy	2.ryy	8r	.	2.ryy	2.ryy
8D/	4b\	.	4gg\	.	.	.	4gg\	Glo-	.	.
8E/	.	.	.	.	.	.	.	.	.	.
8D/	4b\	.	4gg\	.	.	.	4gg\	-ri-	.	.
8E/	.	.	.	.	.	.	.	.	.	.
8C#X/J	8b\	.	8gg\	.	.	.	8gg\	-am	.	.
=89	=89	=89	=89	=89	=89	=89	=89	=89	=89	=89
2D;/	2b;\	.	2gg;\	.	1ryy	1ryy	2gg;\	tu	1ryy	1ryy
!LO:TX:b:t=Da Capo.	!LO:TX:b:t=Da Capo.	!	!LO:TX:b:t=Da Capo&colon;	!	!	!	!	!	!	!
4r	4r	.	4r	.	.	.	8ff#\L	.	.	.
.	.	.	.	.	.	.	8ffn\	.	.	.
!	!	!	!	!	!	!	!LO:TX:b:t=Tormata	!	!	!
4ryy	4ryy	.	4ryy	.	.	.	8ee\	.	.	.
.	.	.	.	.	.	.	8dd#X\J	.	.	.
2ryy	2ryy	.	2ryy	.	2ryy	2ryy	4ee\	.	2ryy	2ryy
.	.	.	.	.	.	.	24ee\LL	.	.	.
.	.	.	.	.	.	.	24dd#\	.	.	.
.	.	.	.	.	.	.	24cc\JJ	.	.	.
.	.	.	.	.	.	.	24b\LL	.	.	.
.	.	.	.	.	.	.	24cc\	.	.	.
.	.	.	.	.	.	.	24a\JJ	.	.	.
1ryy	1ryy	.	1ryy	.	1ryy	1ryy	24g/LL	.	1ryy	1ryy
.	.	.	.	.	.	.	24f#/	.	.	.
.	.	.	.	.	.	.	24e/JJ	.	.	.
.	.	.	.	.	.	.	(8d/L	.	.	.
.	.	.	.	.	.	.	8e-X/	.	.	.
.	.	.	.	.	.	.	8en/	.	.	.
.	.	.	.	.	.	.	8fn/	.	.	.
.	.	.	.	.	.	.	8f#X/	.	.	.
.	.	.	.	.	.	.	8g/J)	.	.	.
!	!	!	!	!	!	!	!LO:LB:g=original	!	!	!
.	.	.	.	.	.	.	(8a/L	.	.	.
1ryy	1ryy	.	1ryy	.	1ryy	1ryy	8b/	.	1ryy	1ryy
.	.	.	.	.	.	.	8cc/	.	.	.
.	.	.	.	.	.	.	8dd#/J)	.	.	.
.	.	.	.	.	.	.	24ee\LL	.	.	.
.	.	.	.	.	.	.	24dd#\	.	.	.
.	.	.	.	.	.	.	24cc\JJ	.	.	.
.	.	.	.	.	.	.	24b\LL	.	.	.
.	.	.	.	.	.	.	24cc\	.	.	.
.	.	.	.	.	.	.	24a\JJ	.	.	.
.	.	.	.	.	.	.	8.g/L	tu-	.	.
.	.	.	.	.	.	.	16a/Jk	.	.	.
.	.	.	.	.	.	.	2aT;;\	.	.	.
2ryy	2ryy	.	2ryy	.	2ryy	2ryy	.	.	2ryy	2ryy
.	.	.	.	.	.	.	4g/	-am	.	.
8ryy	8ryy	.	8ryy	.	8ryy	8ryy	.	.	8ryy	8ryy
==	==	==	==	==	==	==	==	==	==	==
*-	*-	*-	*-	*-	*-	*-	*-	*-	*-	*-
!!!system-decoration: [(s1,s2)][(s3,s4,s5)][(s6,s7)]s8
!!!RDF**kern: < = below
!!!RDF**kern: | = vertical stroke
!!!AIN: 1 bass 2 cor 1 organ 2 soprn 2 violn
!!!ENC: Marcin Jachim
!!!END: 2020-08-19
!!!ENC: Marta Lawrence
!!!END: 2021-11-07
